ui/public/images/landing-cards/school.svg

<svg width="81" height="80" viewBox="0 0 81 80" fill="none" xmlns="http://www.w3.org/2000/svg">
<path fill-rule="evenodd" clip-rule="evenodd" d="M15.6665 14C15.1151 14 14.6665 13.5514 14.6665 13C14.6665 12.4486 15.1151 12 15.6665 12C16.2179 12 16.6665 12.4486 16.6665 13C16.6665 13.5514 16.2179 14 15.6665 14Z" fill="#CACAFB"/>
<path fill-rule="evenodd" clip-rule="evenodd" d="M5.6665 70C5.1151 70 4.6665 69.5514 4.6665 69C4.6665 68.4486 5.1151 68 5.6665 68C6.2179 68 6.6665 68.4486 6.6665 69C6.6665 69.5514 6.2179 70 5.6665 70Z" fill="#CACAFB"/>
<path fill-rule="evenodd" clip-rule="evenodd" d="M75.6665 64C75.1151 64 74.6665 63.5514 74.6665 63C74.6665 62.4486 75.1151 62 75.6665 62C76.2179 62 76.6665 62.4486 76.6665 63C76.6665 63.5514 76.2179 64 75.6665 64Z" fill="#CACAFB"/>
<path fill-rule="evenodd" clip-rule="evenodd" d="M59.6665 12C59.1151 12 58.6665 11.5514 58.6665 11C58.6665 10.4486 59.1151 10 59.6665 10C60.2179 10 60.6665 10.4486 60.6665 11C60.6665 11.5514 60.2179 12 59.6665 12Z" fill="#CACAFB"/>
<path d="M14.6729 37.6022C14.7527 36.6783 15.5754 36 16.5236 36H19.6665L19.7831 36.0067C20.2805 36.0645 20.6665 36.4872 20.6665 37L20.6598 37.1166C20.602 37.614 20.1793 38 19.6665 38H16.6665V42H19.6665L19.7831 42.0067C20.2805 42.0645 20.6665 42.4872 20.6665 43C20.6665 43.5523 20.2188 44 19.6665 44H16.5236L16.3751 43.9944C15.4417 43.9242 14.6665 43.1985 14.6665 42.25V37.75L14.6729 37.6022Z" fill="#E1000F"/>
<path d="M28.6602 37.6022C28.5803 36.6783 27.7576 36 26.8094 36H23.6665L23.5499 36.0067C23.0525 36.0645 22.6665 36.4872 22.6665 37L22.6732 37.1166C22.731 37.614 23.1537 38 23.6665 38H26.6665V42H23.6665L23.5499 42.0067C23.0525 42.0645 22.6665 42.4872 22.6665 43C22.6665 43.5523 23.1142 44 23.6665 44H26.8094L26.958 43.9944C27.8913 43.9242 28.6665 43.1985 28.6665 42.25V37.75L28.6602 37.6022Z" fill="#E1000F"/>
<path d="M64.8094 36C65.7576 36 66.5803 36.6783 66.6602 37.6022L66.6665 37.75V42.25C66.6665 43.1985 65.8913 43.9242 64.958 43.9944L64.8094 44H61.6665C61.1142 44 60.6665 43.5523 60.6665 43C60.6665 42.4872 61.0525 42.0645 61.5499 42.0067L61.6665 42H64.6665V38H61.6665C61.1537 38 60.731 37.614 60.6732 37.1166L60.6665 37C60.6665 36.4872 61.0525 36.0645 61.5499 36.0067L61.6665 36H64.8094Z" fill="#E1000F"/>
<path d="M52.6729 37.6022C52.7528 36.6783 53.5754 36 54.5236 36H57.6665L57.7831 36.0067C58.2805 36.0645 58.6665 36.4872 58.6665 37L58.6598 37.1166C58.602 37.614 58.1793 38 57.6665 38H54.6665V42H57.6665L57.7831 42.0067C58.2805 42.0645 58.6665 42.4872 58.6665 43C58.6665 43.5523 58.2188 44 57.6665 44H54.5236L54.3751 43.9944C53.4417 43.9242 52.6665 43.1985 52.6665 42.25V37.75L52.6729 37.6022Z" fill="#E1000F"/>
<path fill-rule="evenodd" clip-rule="evenodd" d="M14.6665 48C13.5619 48 12.6665 48.8954 12.6665 50V56C12.6665 57.1046 13.5619 58 14.6665 58H18.6665C19.7711 58 20.6665 57.1046 20.6665 56V50C20.6665 48.8954 19.7711 48 18.6665 48H14.6665ZM18.6665 56V50H14.6665V56H18.6665Z" fill="#E1000F"/>
<path fill-rule="evenodd" clip-rule="evenodd" d="M24.6665 48C23.5619 48 22.6665 48.8954 22.6665 50V56C22.6665 57.1046 23.5619 58 24.6665 58H28.6665C29.7711 58 30.6665 57.1046 30.6665 56V50C30.6665 48.8954 29.7711 48 28.6665 48H24.6665ZM28.6665 56V50H24.6665V56H28.6665Z" fill="#E1000F"/>
<path fill-rule="evenodd" clip-rule="evenodd" d="M52.6665 48C51.5619 48 50.6665 48.8954 50.6665 50V56C50.6665 57.1046 51.5619 58 52.6665 58H56.6665C57.7711 58 58.6665 57.1046 58.6665 56V50C58.6665 48.8954 57.7711 48 56.6665 48H52.6665ZM56.6665 56V50H52.6665V56H56.6665Z" fill="#E1000F"/>
<path fill-rule="evenodd" clip-rule="evenodd" d="M62.6665 48C61.5619 48 60.6665 48.8954 60.6665 50V56C60.6665 57.1046 61.5619 58 62.6665 58H66.6665C67.7711 58 68.6665 57.1046 68.6665 56V50C68.6665 48.8954 67.7711 48 66.6665 48H62.6665ZM66.6665 56V50H62.6665V56H66.6665Z" fill="#E1000F"/>
<path d="M36.3736 12.2929C35.9831 11.9024 35.3499 11.9024 34.9594 12.2929L20.9594 26.2929L20.8762 26.3871C20.5712 26.7794 20.5989 27.3466 20.9594 27.7071C21.3499 28.0976 21.9831 28.0976 22.3736 27.7071L36.3736 13.7071L36.4568 13.6129C36.7618 13.2206 36.7341 12.6534 36.3736 12.2929Z" fill="#000091"/>
<path d="M41.2514 14.1888C40.8682 13.9119 40.3341 13.9396 39.9811 14.2718L29.2847 24.3391L29.1987 24.4307C28.8819 24.8136 28.8924 25.3814 29.2418 25.7526L29.3335 25.8386C29.7163 26.1554 30.2842 26.1449 30.6554 25.7955L40.6655 16.373L56.6924 31.4564L56.8203 31.567C57.1725 31.8464 57.6102 32 58.0631 32H67.6665L67.7831 31.9933C68.2805 31.9355 68.6665 31.5128 68.6665 31C68.6665 30.4477 68.2188 30 67.6665 30H58.0631L41.3519 14.2718L41.2514 14.1888Z" fill="#000091"/>
<path d="M71.6665 30C71.1537 30 70.731 30.386 70.6732 30.8834L70.6665 31V64H61.6665C61.1537 64 60.731 64.386 60.6732 64.8834L60.6665 65C60.6665 65.5128 61.0525 65.9355 61.5499 65.9933L61.6665 66H71.6665C72.1793 66 72.602 65.614 72.6598 65.1166L72.6665 65V31C72.6665 30.4477 72.2188 30 71.6665 30Z" fill="#000091"/>
<path d="M21.6665 64C22.2188 64 22.6665 64.4477 22.6665 65C22.6665 65.5128 22.2805 65.9355 21.7831 65.9933L21.6665 66H13.6665C13.1142 66 12.6665 65.5523 12.6665 65C12.6665 64.4872 13.0525 64.0645 13.5499 64.0067L13.6665 64H21.6665Z" fill="#000091"/>
<path d="M10.6665 65C10.6665 65.5523 10.2188 66 9.6665 66C9.11422 66 8.6665 65.5523 8.6665 65C8.6665 64.4477 9.11422 64 9.6665 64C10.2188 64 10.6665 64.4477 10.6665 65Z" fill="#000091"/>
<path fill-rule="evenodd" clip-rule="evenodd" d="M52.6665 61C52.6665 60.4477 52.2188 60 51.6665 60H48.6665V45L48.6598 44.8834C48.602 44.386 48.1793 44 47.6665 44H33.6665L33.5499 44.0067C33.0525 44.0645 32.6665 44.4872 32.6665 45V60H29.6665L29.5499 60.0067C29.0525 60.0645 28.6665 60.4872 28.6665 61C28.6665 61.5523 29.1142 62 29.6665 62H51.6665L51.7831 61.9933C52.2805 61.9355 52.6665 61.5128 52.6665 61ZM41.6665 51V60H46.6665V45.999H34.6665V60H39.6665V51C39.6665 50.4477 40.1142 50 40.6665 50C41.1793 50 41.602 50.386 41.6598 50.8834L41.6665 51Z" fill="#000091"/>
<path d="M41.6665 30C42.2188 30 42.6665 30.4477 42.6665 31C42.6665 31.5128 42.2805 31.9355 41.7831 31.9933L41.6665 32H39.6665C39.1537 32 38.731 31.614 38.6732 31.1166C38.6688 31.0784 38.6665 31.0394 38.6665 31V29C38.6665 28.4477 39.1142 28 39.6665 28C40.1793 28 40.602 28.386 40.6598 28.8834L40.6665 29V30H41.6665Z" fill="#000091"/>
<path fill-rule="evenodd" clip-rule="evenodd" d="M34.6665 30C34.6665 26.6863 37.3528 24 40.6665 24C43.9802 24 46.6665 26.6863 46.6665 30C46.6665 33.3137 43.9802 36 40.6665 36C37.3528 36 34.6665 33.3137 34.6665 30ZM40.6665 26C42.8756 26 44.6665 27.7909 44.6665 30C44.6665 32.2091 42.8756 34 40.6665 34C38.4574 34 36.6665 32.2091 36.6665 30C36.6665 27.7909 38.4574 26 40.6665 26Z" fill="#000091"/>
<path d="M46.6665 41C46.6665 40.4477 46.2188 40 45.6665 40H35.6665L35.5499 40.0067C35.0525 40.0645 34.6665 40.4872 34.6665 41C34.6665 41.5523 35.1142 42 35.6665 42H45.6665L45.7831 41.9933C46.2805 41.9355 46.6665 41.5128 46.6665 41Z" fill="#000091"/>
<path d="M56.6665 65C56.6665 64.4477 56.2188 64 55.6665 64H25.6665L25.5499 64.0067C25.0525 64.0645 24.6665 64.4872 24.6665 65C24.6665 65.5523 25.1142 66 25.6665 66H55.6665L55.7831 65.9933C56.2805 65.9355 56.6665 65.5128 56.6665 65Z" fill="#000091"/>
<path d="M24.9594 28.2929C25.3499 27.9024 25.9831 27.9024 26.3736 28.2929C26.7341 28.6534 26.7618 29.2206 26.4568 29.6129L26.3736 29.7071L24.3736 31.7071C24.2173 31.8634 24.0146 31.9626 23.7979 31.9913L23.6665 32H10.6665V61C10.6665 61.5128 10.2805 61.9355 9.78313 61.9933L9.6665 62C9.15367 62 8.731 61.614 8.67323 61.1166L8.6665 61V31C8.6665 30.4872 9.05254 30.0645 9.54988 30.0067L9.6665 30H23.2505L24.9594 28.2929Z" fill="#000091"/>
<path d="M67.6665 26C68.2188 26 68.6665 26.4477 68.6665 27C68.6665 27.5128 68.2805 27.9355 67.7831 27.9933L67.6665 28H59.6665C59.1142 28 58.6665 27.5523 58.6665 27C58.6665 26.4872 59.0525 26.0645 59.5499 26.0067L59.6665 26H67.6665Z" fill="#000091"/>
<path d="M71.6665 28C72.2188 28 72.6665 27.5523 72.6665 27C72.6665 26.4477 72.2188 26 71.6665 26C71.1142 26 70.6665 26.4477 70.6665 27C70.6665 27.5523 71.1142 28 71.6665 28Z" fill="#000091"/>
</svg>

<svg width="81" height="80" fill="none" xmlns="http://www.w3.org/2000/svg"><path fill-rule="evenodd" clip-rule="evenodd" d="M15.666 14a1.001 1.001 0 0 1 0-2 1.001 1.001 0 0 1 0 2zM5.667 70a1.001 1.001 0 0 1 0-2 1.001 1.001 0 0 1 0 2zM75.666 64a1.001 1.001 0 0 1 0-2 1.001 1.001 0 0 1 0 2zM59.666 12a1.001 1.001 0 0 1 0-2 1.001 1.001 0 0 1 0 2z" fill="#CACAFB"/><path d="M14.673 37.602c.08-.924.902-1.602 1.85-1.602h3.143l.117.007a1 1 0 0 1 .883.993l-.006.117a1 1 0 0 1-.994.883h-3v4h3l.117.007A1 1 0 0 1 19.666 44h-3.142l-.149-.006c-.933-.07-1.709-.795-1.709-1.744v-4.5l.007-.148zM28.66 37.602c-.08-.924-.902-1.602-1.85-1.602h-3.143l-.117.007a1 1 0 0 0-.884.993l.007.117a1 1 0 0 0 .994.883h3v4h-3l-.117.007A1 1 0 0 0 23.666 44h3.143l.149-.006c.933-.07 1.709-.795 1.709-1.744v-4.5l-.007-.148zM64.81 36c.948 0 1.77.678 1.85 1.602l.007.148v4.5c0 .949-.776 1.674-1.709 1.744l-.149.006h-3.142a1 1 0 0 1-.117-1.993l.117-.007h3v-4h-3a1 1 0 0 1-.994-.883L60.666 37a1 1 0 0 1 .884-.993l.117-.007h3.142zM52.673 37.602c.08-.924.902-1.602 1.85-1.602h3.143l.117.007a1 1 0 0 1 .883.993l-.006.117a1 1 0 0 1-.993.883h-3v4h3l.116.007A1 1 0 0 1 57.666 44h-3.142l-.149-.006c-.933-.07-1.709-.795-1.709-1.744v-4.5l.007-.148z" fill="#E1000F"/><path fill-rule="evenodd" clip-rule="evenodd" d="M14.666 48a2 2 0 0 0-2 2v6a2 2 0 0 0 2 2h4a2 2 0 0 0 2-2v-6a2 2 0 0 0-2-2h-4zm4 8v-6h-4v6h4zM24.666 48a2 2 0 0 0-2 2v6a2 2 0 0 0 2 2h4a2 2 0 0 0 2-2v-6a2 2 0 0 0-2-2h-4zm4 8v-6h-4v6h4zM52.666 48a2 2 0 0 0-2 2v6a2 2 0 0 0 2 2h4a2 2 0 0 0 2-2v-6a2 2 0 0 0-2-2h-4zm4 8v-6h-4v6h4zM62.666 48a2 2 0 0 0-2 2v6a2 2 0 0 0 2 2h4a2 2 0 0 0 2-2v-6a2 2 0 0 0-2-2h-4zm4 8v-6h-4v6h4z" fill="#E1000F"/><path d="M36.374 12.293a1 1 0 0 0-1.415 0l-14 14-.083.094a1 1 0 0 0 1.498 1.32l14-14 .083-.094a1 1 0 0 0-.083-1.32zM41.251 14.189a1 1 0 0 0-1.27.083L29.285 24.339l-.086.092a1 1 0 0 0 .043 1.322l.091.086a1 1 0 0 0 1.322-.043l10.01-9.423 16.027 15.083.128.111a2 2 0 0 0 1.243.433h9.603l.117-.007A1 1 0 0 0 67.666 30h-9.603L41.352 14.272l-.1-.083zM71.666 30a1 1 0 0 0-.993.883l-.007.117v33h-9a1 1 0 0 0-.993.883l-.007.117a1 1 0 0 0 .884.993l.117.007h10a1 1 0 0 0 .993-.883l.007-.117V31a1 1 0 0 0-1-1zM21.666 64a1 1 0 0 1 .117 1.993l-.117.007h-8a1 1 0 0 1-.116-1.993l.116-.007h8zM10.666 65a1 1 0 1 1-2 0 1 1 0 0 1 2 0z" fill="#000091"/><path fill-rule="evenodd" clip-rule="evenodd" d="M52.666 61a1 1 0 0 0-1-1h-3V45l-.006-.117a1 1 0 0 0-.993-.883h-14l-.117.007a1 1 0 0 0-.883.993v15h-3l-.117.007A1 1 0 0 0 29.666 62h22l.117-.007a1 1 0 0 0 .883-.993zm-11-10v9h5V45.999h-12V60h5v-9a1 1 0 0 1 1.994-.117l.007.117z" fill="#000091"/><path d="M41.666 30a1 1 0 0 1 .117 1.993l-.117.007h-2a1 1 0 0 1-1-1v-2a1 1 0 0 1 1.994-.117l.007.117v1h1z" fill="#000091"/><path fill-rule="evenodd" clip-rule="evenodd" d="M34.666 30a6 6 0 1 1 12 0 6 6 0 0 1-12 0zm6-4a4 4 0 1 1 0 8 4 4 0 0 1 0-8z" fill="#000091"/><path d="M46.666 41a1 1 0 0 0-1-1h-10l-.116.007A1 1 0 0 0 35.667 42h10l.116-.007a1 1 0 0 0 .883-.993zM56.666 65a1 1 0 0 0-1-1h-30l-.116.007A1 1 0 0 0 25.666 66h30l.117-.007a1 1 0 0 0 .883-.993zM24.96 28.293a1 1 0 0 1 1.497 1.32l-.083.094-2 2a1 1 0 0 1-.576.284l-.131.009h-13v29a1 1 0 0 1-.884.993L9.666 62a1 1 0 0 1-.993-.883L8.666 61V31a1 1 0 0 1 .884-.993L9.666 30H23.25l1.71-1.707zM67.666 26a1 1 0 0 1 .117 1.993l-.117.007h-8a1 1 0 0 1-.116-1.993l.117-.007h8zM71.666 28a1 1 0 1 0 0-2 1 1 0 0 0 0 2z" fill="#000091"/></svg>
